dist/img/svg/flash_icon.svg

<svg xmlns="http://www.w3.org/2000/svg" viewBox="0 0 46.96 46.97"><style>.st1{stroke:#000;fill:none;stroke-width:.5}.st0{fill:#000}</style><path class="st0" d="M43.85 13.59l-.05.05-10.5-10.5.05-.05 1.05-1.05 10.5 10.5zM29.44 6.97l2.78-2.78 10.5 10.5-2.74 2.82zM10.56 43.63L3.33 36.4a5.407 5.407 0 01-1.58-3.81c0-1.43.57-2.8 1.58-3.81L26.21 5.89l1.11 1.08.53.54.53.53 10.5 10.5.54.53.53.53 1.11 1.11-22.88 22.92a5.415 5.415 0 01-3.81 1.57c-1.43 0-2.8-.56-3.81-1.57M34.92.46a.757.757 0 00-.53-.21c-.2 0-.39.07-.53.21l-2.13 2.11-3.37 3.37-1.64-1.64a.75.75 0 00-1.06 0L2.27 27.72a7.01 7.01 0 00-1.5 2.23c-.35.84-.53 1.74-.53 2.64 0 .91.18 1.81.53 2.64.35.84.86 1.6 1.5 2.24L9.5 44.7c.64.64 1.4 1.15 2.23 1.5.84.34 1.74.52 2.64.52.91 0 1.81-.18 2.64-.52.84-.35 1.6-.86 2.24-1.5l23.4-23.42a.75.75 0 000-1.06l-1.64-1.64 3.31-3.32.05-.05 2.12-2.12a.75.75 0 00.22-.53c0-.19-.08-.38-.22-.52z"/><path class="st1" d="M43.85 13.59l-.05.05-10.5-10.5.05-.05 1.05-1.05 10.5 10.5-1.05 1.05zM29.44 6.97l2.78-2.78 10.5 10.5-2.74 2.82L29.44 6.97zM10.56 43.63L3.33 36.4a5.407 5.407 0 01-1.58-3.81c0-1.43.57-2.8 1.58-3.81L26.21 5.89l1.11 1.08.53.54.53.53 10.5 10.5.54.53.53.53 1.11 1.11-22.88 22.92a5.415 5.415 0 01-3.81 1.57c-1.43 0-2.8-.56-3.81-1.57zM34.92.46a.757.757 0 00-.53-.21c-.2 0-.39.07-.53.21l-2.13 2.11-3.37 3.37-1.64-1.64a.75.75 0 00-1.06 0L2.27 27.72a7.01 7.01 0 00-1.5 2.23c-.35.84-.53 1.74-.53 2.64 0 .91.18 1.81.53 2.64.35.84.86 1.6 1.5 2.24L9.5 44.7c.64.64 1.4 1.15 2.23 1.5.84.34 1.74.52 2.64.52.91 0 1.81-.18 2.64-.52.84-.35 1.6-.86 2.24-1.5l23.4-23.42a.75.75 0 000-1.06l-1.64-1.64 3.31-3.32.05-.05 2.12-2.12a.75.75 0 00.22-.53c0-.19-.08-.38-.22-.52L34.92.46z"/><path class="st0" d="M11.48 36.94c-.35-.11-.66-.29-.92-.55-.43-.45-.67-1.04-.68-1.67 0-.15.02-.29.05-.44.07-.35.22-.69.44-.97.22-.29.51-.52.84-.67.32-.16.68-.24 1.04-.23.36.01.72.1 1.04.27.32.17.59.42.8.71.21.3.35.64.4.99.05.36.02.73-.09 1.07-.11.35-.3.66-.56.92-.33.32-.76.54-1.21.61-.38.08-.78.06-1.15-.04M9.5 32.05c-.5.53-.86 1.17-1.02 1.88a3.72 3.72 0 00-.02 1.66c.11.55.35 1.06.69 1.51.35.44.79.8 1.29 1.05.5.26 1.05.39 1.61.4h.15c.28 0 .55-.03.82-.09.58-.13 1.13-.39 1.59-.76.46-.38.83-.85 1.07-1.39a3.8 3.8 0 00.34-1.73 3.73 3.73 0 00-.47-1.69 3.75 3.75 0 00-1.17-1.3 3.84 3.84 0 00-3.39-.48c-.56.19-1.07.51-1.49.93z"/><path class="st1" d="M11.48 36.94c-.35-.11-.66-.29-.92-.55-.43-.45-.67-1.04-.68-1.67 0-.15.02-.29.05-.44.07-.35.22-.69.44-.97.22-.29.51-.52.84-.67.32-.16.68-.24 1.04-.23.36.01.72.1 1.04.27.32.17.59.42.8.71.21.3.35.64.4.99.05.36.02.73-.09 1.07-.11.35-.3.66-.56.92-.33.32-.76.54-1.21.61-.38.08-.78.06-1.15-.04zM9.5 32.05c-.5.53-.86 1.17-1.02 1.88a3.72 3.72 0 00-.02 1.66c.11.55.35 1.06.69 1.51.35.44.79.8 1.29 1.05.5.26 1.05.39 1.61.4h.15c.28 0 .55-.03.82-.09.58-.13 1.13-.39 1.59-.76.46-.38.83-.85 1.07-1.39a3.8 3.8 0 00.34-1.73 3.73 3.73 0 00-.47-1.69 3.75 3.75 0 00-1.17-1.3 3.84 3.84 0 00-3.39-.48c-.56.19-1.07.51-1.49.93v.01z"/></svg>

<svg xmlns="http://www.w3.org/2000/svg" viewBox="0 0 46.96 46.97">
	<style type="text/css">
		.st1{stroke:#000000;fill:none;stroke-width:0.5;}
		.st0{fill:#000000;}
	</style>
	<path class="st0" d="M43.85,13.59L43.8,13.64L33.3,3.14L33.35,3.09L34.4,2.04L44.9,12.54ZM29.44,6.97L32.22,4.19L42.72,14.69L39.98,17.51ZM10.56,43.63L3.33,36.4C2.32,35.39 1.75,34.01 1.75,32.59C1.75,31.16 2.32,29.79 3.33,28.78L26.21,5.89L27.32,6.97L27.85,7.51L28.38,8.04L38.88,18.54L39.42,19.07L39.95,19.6L41.06,20.71L18.18,43.63C17.16,44.64 15.79,45.2 14.37,45.2C12.94,45.2 11.57,44.64 10.56,43.63M34.92,0.46C34.78,0.32 34.58,0.25 34.39,0.25C34.19,0.25 34,0.32 33.86,0.46L31.73,2.57L28.36,5.94L26.72,4.3C26.58,4.16 26.39,4.08 26.19,4.08C25.99,4.08 25.8,4.16 25.66,4.3L2.27,27.72C1.63,28.36 1.12,29.12 0.77,29.95C0.42,30.79 0.24,31.69 0.24,32.59C0.24,33.5 0.42,34.4 0.77,35.23C1.12,36.07 1.63,36.83 2.27,37.47L9.5,44.7C10.14,45.34 10.9,45.85 11.73,46.2C12.57,46.54 13.47,46.72 14.37,46.72C15.28,46.72 16.18,46.54 17.01,46.2C17.85,45.85 18.61,45.34 19.25,44.7L42.65,21.28C42.79,21.14 42.87,20.95 42.87,20.75C42.87,20.55 42.79,20.36 42.65,20.22L41.01,18.58L44.32,15.26L44.37,15.21L46.49,13.09C46.63,12.95 46.71,12.76 46.71,12.56C46.71,12.37 46.63,12.18 46.49,12.04Z"/>
	<path class="st1" d="M43.85,13.59L43.8,13.64L33.3,3.14L33.35,3.09L34.4,2.04L44.9,12.54L43.85,13.59ZM29.44,6.97L32.22,4.19L42.72,14.69L39.98,17.51L29.44,6.97ZM10.56,43.63L3.33,36.4C2.32,35.39 1.75,34.01 1.75,32.59C1.75,31.16 2.32,29.79 3.33,28.78L26.21,5.89L27.32,6.97L27.85,7.51L28.38,8.04L38.88,18.54L39.42,19.07L39.95,19.6L41.06,20.71L18.18,43.63C17.16,44.64 15.79,45.2 14.37,45.2C12.94,45.2 11.57,44.64 10.56,43.63ZM34.92,0.46C34.78,0.32 34.58,0.25 34.39,0.25C34.19,0.25 34,0.32 33.86,0.46L31.73,2.57L28.36,5.94L26.72,4.3C26.58,4.16 26.39,4.08 26.19,4.08C25.99,4.08 25.8,4.16 25.66,4.3L2.27,27.72C1.63,28.36 1.12,29.12 0.77,29.95C0.42,30.79 0.24,31.69 0.24,32.59C0.24,33.5 0.42,34.4 0.77,35.23C1.12,36.07 1.63,36.83 2.27,37.47L9.5,44.7C10.14,45.34 10.9,45.85 11.73,46.2C12.57,46.54 13.47,46.72 14.37,46.72C15.28,46.72 16.18,46.54 17.01,46.2C17.85,45.85 18.61,45.34 19.25,44.7L42.65,21.28C42.79,21.14 42.87,20.95 42.87,20.75C42.87,20.55 42.79,20.36 42.65,20.22L41.01,18.58L44.32,15.26L44.37,15.21L46.49,13.09C46.63,12.95 46.71,12.76 46.71,12.56C46.71,12.37 46.63,12.18 46.49,12.04L34.92,0.46Z"/>
	<path class="st0" d="M11.48,36.94C11.13,36.83 10.82,36.65 10.56,36.39C10.13,35.94 9.89,35.35 9.88,34.72C9.88,34.57 9.9,34.43 9.93,34.28C10,33.93 10.15,33.59 10.37,33.31C10.59,33.02 10.88,32.79 11.21,32.64C11.53,32.48 11.89,32.4 12.25,32.41C12.61,32.42 12.97,32.51 13.29,32.68C13.61,32.85 13.88,33.1 14.09,33.39C14.3,33.69 14.44,34.03 14.49,34.38C14.54,34.74 14.51,35.11 14.4,35.45C14.29,35.8 14.1,36.11 13.84,36.37C13.51,36.69 13.08,36.91 12.63,36.98C12.25,37.06 11.85,37.04 11.48,36.94M9.5,32.05C9,32.58 8.64,33.22 8.48,33.93C8.35,34.47 8.34,35.04 8.46,35.59C8.57,36.14 8.81,36.65 9.15,37.1C9.5,37.54 9.94,37.9 10.44,38.15C10.94,38.41 11.49,38.54 12.05,38.55L12.2,38.55C12.48,38.55 12.75,38.52 13.02,38.46C13.6,38.33 14.15,38.07 14.61,37.7C15.07,37.32 15.44,36.85 15.68,36.31C15.93,35.77 16.04,35.18 16.02,34.58C16,33.99 15.84,33.41 15.55,32.89C15.27,32.37 14.86,31.92 14.38,31.59C13.89,31.25 13.33,31.03 12.74,30.95C12.15,30.87 11.55,30.92 10.99,31.11C10.43,31.3 9.92,31.62 9.5,32.04Z"/>
	<path class="st1" d="M11.48,36.94C11.13,36.83 10.82,36.65 10.56,36.39C10.13,35.94 9.89,35.35 9.88,34.72C9.88,34.57 9.9,34.43 9.93,34.28C10,33.93 10.15,33.59 10.37,33.31C10.59,33.02 10.88,32.79 11.21,32.64C11.53,32.48 11.89,32.4 12.25,32.41C12.61,32.42 12.97,32.51 13.29,32.68C13.61,32.85 13.88,33.1 14.09,33.39C14.3,33.69 14.44,34.03 14.49,34.38C14.54,34.74 14.51,35.11 14.4,35.45C14.29,35.8 14.1,36.11 13.84,36.37C13.51,36.69 13.08,36.91 12.63,36.98C12.25,37.06 11.85,37.04 11.48,36.94ZM9.5,32.05C9,32.58 8.64,33.22 8.48,33.93C8.35,34.47 8.34,35.04 8.46,35.59C8.57,36.14 8.81,36.65 9.15,37.1C9.5,37.54 9.94,37.9 10.44,38.15C10.94,38.41 11.49,38.54 12.05,38.55L12.2,38.55C12.48,38.55 12.75,38.52 13.02,38.46C13.6,38.33 14.15,38.07 14.61,37.7C15.07,37.32 15.44,36.85 15.68,36.31C15.93,35.77 16.04,35.18 16.02,34.58C16,33.99 15.84,33.41 15.55,32.89C15.27,32.37 14.86,31.92 14.38,31.59C13.89,31.25 13.33,31.03 12.74,30.95C12.15,30.87 11.55,30.92 10.99,31.11C10.43,31.3 9.92,31.62 9.5,32.04L9.5,32.05Z"/>
</svg>
